X: 1
T: Orange and Blue
C:
R:Jig
Q:180
F:http://roaringjelly.org/~jc/music/abc/mirror/BruceShawyer/jig/Orange_and_Blue.abc	 2022-05-02 015540 UT
K:A
M:6/8
L:1/16
e2|c4A2 A2G2A2|E4A2 C4A2|c4A2 c2e2c2|A6A4c2|d4B2 B2^A2B2|
F4B2 B4A2G4E2G2B2G2E6E4d2|c4A2A2G2A2E4A2C4A2
c4A2 c2e2c2|A6A4e2|f4d2 e4c2|d4B2 c4A2|G2B2G2 E2F2G2|A6A4e2|
c4e2 e2f2e2|c4e2 e2f2e2|c4A2 c2e2c2|A6A4c2|d4f2 f2g2f2|
d4f2 f2g2f2|d4B2 d2f2d2|B6B4d2|c4e2 e2f2e2|c4e2 e2f2e2|
c4A2 c2e2c2|A6A4e2|f2d2f2 e2c2e2|d2B2d2 c2A2c2|G2B2G2 E2F2G2|A6-A4||





